X: 3019
T: DAFT WILLIE DAWSON
Q:"Strathspey."
R: Strathspey.
%R:strathspey
B: James Kerr "Merry Melodies" v.3 p.5 #19
Z: 2016 John Chambers <jc:trillian.mit.edu>
M: C
L: 1/16
K: D
uA2 |\
vFuD3 vD3uD A,D3 D3D | FD3 D3G FGAF DF3 |\
GE3 E3E B,3EE3F | GE3E3d cdec Ac3 |\
dD3 D3D A,D3 D3D |
FD3 D3G FGAF DF3 |\
GB3 EG3 FA3 d3B | cdec A3c dD3-D2 |]\
g2 |\
f3da3d b3da3g | fd3 d3g fgaf df3 |
g3eb3e ge3 e3f | g3eb3e gabg eg3 |\
f3da3d b3da3g | fd3 d3g fgaf df3 |\
gb3 eg3 fa3 df3 | cdec A3c dD3-D2 |]

%%sep 1 1 500
%%sep 1 1 500

